!!!COM: de Machuat, Guillaume
!!!OTL: Douce dame
!! Guillaume de Machaut, "Douce dame" No. 20 from Volume 5 of
!! "Oeuvres Comple\tes" E/ditions de l'Oiseau-lyre (Monaco) -1977; p.22
**kern	**kern
*M6/8	*M6/8
=1	=1
[2.c	[4.g
.	4g]
.	8a
=2	=2
2.c]	4.g
.	8f
.	4e
=3	=3
4.B	4.d
4.c	4.c
=4	=4
2.B	8d
.	4e
.	8d
.	4e
=5	=5
2.c	8d
.	4c
.	8B
.	4c
=6	=6
4.d	4.B
4.e	4.A
=7	=7
2.B	4d
.	8c
.	4d
.	8e
=8	=8
4r	4.c
8c	.
4.A	4r
.	8e
=9	=9
2.B-	4d
.	8c
.	8d
.	8c
.	8d
=10	=10
2.A	2.e
=11	=11
4.G	4r
.	8a
4.B-	4.g
=12	=12
2.A	8f#
.	4g
.	4.a
=13	=13
2.c	2.g
=14	=14
2.d	4.f#
.	8e
.	4d
=15	=15
4.e	4.c
4.f	4.d
=16	=16
4.e	8c
.	8r
.	8g
8d	4fn
4c	.
.	8e
=17	=17
2.B	4d
.	8c#
.	8d
.	8c#
.	8d
=18	=18
2.A;	2.e;
=19	=19
[4.G	2.g
4G]	.
8A	.
=20	=20
4B-	[4.d
8A	.
4Bn	4d]
8c	8c
=21	=21
2.d	4B
.	8A
.	8B
.	8A
.	8B
=22	=22
2.c	2.c
=23	=23
4.c	8e
.	4f#
[4.B	4.g
=24	=24
4.B]	8f#
.	4g
4.A	4.a
=25	=25
2.c	[4.e
.	4e]
.	8d
=26	=26
2.A	4f#
.	8g
.	4a
.	8f#
=27	=27
4.G	4.g
4.B-	4f
.	8g
=28	=28
2.A	2.a
=29	=29
4.G	8r
.	8b-
.	8a
[4.B-	8b-
.	8a
.	8b-
=30	=30
4.B-]	8g
.	8a
.	8g
4.A	8f#
.	8e
.	8f#
=31	=31
2.G	2.g
==	==
*-	*-
